X:4
T:婚誓 (Marriage Vows)
T:(电影《芦笙恋歌》插曲)
C:雷振邦
M:3/4
L:1/4
Q:1/4=120
%%barnumbers 0
V:1 clef=treble
K:Bbmaj
%%visualtranspose -10_of_semitones
%%jianpu 1
[V:1] f2 d | gfd | cB B/2G/2 | F2 B/2c/2 | d3- | d3 |
f2 d | gfd | c2 d | F2 G | B3- | B3 ||
BcB | fdB | Bd3/2B/2 | c2 d | F3- | F3 |
Bcd | gfd | cB3/2G/2 | c3- | c3 |
GFG | Bcd | gf3/2B/2 | d f2- | f3 |
B2 c/2f/2 | d3 - | d3 | gfd |1 c2 d | F2 G | B3- | 
B3 :||2 c3 | dFG | B3- | B3- | B3 - | B3 |]
